!!!OTL: Der Muskatbaum In Oestereich da steht ein Baum,
!!!ARE: Europa, Mitteleuropa, Deutschland (BRD), Rheinland, Niederrhein
!!!YOR: 6, S. 146
!!    1840 gedruckt in Berlin
!!!SCT: Q0130A
!!!YEM: Copyright 1995, estate of Helmut Schaffrath.
**kern
*ICvox
*Ivox
*M6/8
*k[f#c#]
*D:
{8d
=1
4a
8a
4a
8a
=2
4b
8cc#
4dd}
{8b
=3
4ee
8dd
8cc#
8b
8a
=4
4.b
8a
8r}
{8a
=5
4dd
8dd
4f#
8b
=6
8.a
16b
16a
16g
4f#}
{8d
=7
4e
16f#
16g
8.a
16g
8f#
=8
4.e
4d}
==
!!!AGN: Ballade, Werbung, Standesunterschied
!!!ONB: ESAC (Essen Associative Code) Database: BALLADE
!!!AMT: compound duple
!!!AIN: vox
!!!EED: Helmut Schaffrath
!!!EEV: 1.0
*-
